packages/foundations/assets/icons/functional/images/date & time/clock_32.svg

<svg width="32" height="32" viewBox="0 0 32 32" fill="none" xmlns="http://www.w3.org/2000/svg">
<g clip-path="url(#clip0_185_668)">
<path fill-rule="evenodd" clip-rule="evenodd" d="M16 2C23.7188 2 30 8.2813 30 16C30 23.7187 23.7188 30 16 30C8.2813 30 2 23.7187 2 16C2 8.2813 8.2813 2 16 2ZM16 4C9.375 4 4 9.375 4 16C4 22.625 9.375 28 16 28C22.625 28 28 22.625 28 16C28 9.375 22.625 4 16 4ZM15 16.125V8C15 7.4375 15.4375 7 16 7C16.5 7 17 7.4375 17 8V15.5938L20.7188 19.2812C20.8985 19.446 20.9849 19.6609 20.9849 19.8917C20.9849 20.339 20.595 21.0225 19.9773 21.0225C19.7217 21.0225 19.4707 20.9082 19.2813 20.7187L15.2813 16.7187C15.125 16.5625 15.0313 16.3437 15 16.125Z" fill="#1A1C1F"/>
</g>
<defs>
<clipPath id="clip0_185_668">
<rect width="32" height="32" fill="white"/>
</clipPath>
</defs>
</svg>

<svg xmlns="http://www.w3.org/2000/svg" width="32" height="32" fill="none"><g clip-path="url(#a)"><path fill="#1A1C1F" fill-rule="evenodd" d="M16 2c7.719 0 14 6.281 14 14s-6.281 14-14 14S2 23.719 2 16 8.281 2 16 2m0 2C9.375 4 4 9.375 4 16s5.375 12 12 12 12-5.375 12-12S22.625 4 16 4m-1 12.125V8c0-.562.438-1 1-1 .5 0 1 .438 1 1v7.594l3.719 3.687a.8.8 0 0 1 .266.61c0 .448-.39 1.132-1.008 1.132a1 1 0 0 1-.696-.304l-4-4a1.06 1.06 0 0 1-.281-.594" clip-rule="evenodd"/></g><defs><clipPath id="a"><path fill="#fff" d="M0 0h32v32H0z"/></clipPath></defs></svg>
